material/.icons/material/keyboard-f5.svg

<svg xmlns="http://www.w3.org/2000/svg" viewBox="0 0 24 24"><path d="M5 7h6v2H7v2h3v2H7v4H5V7m8 0h6v2h-4v2h2a2 2 0 012 2v2c0 1.11-.89 2-2 2h-4v-2h4v-2h-4V7z"/></svg>

<?xml version="1.0" encoding="UTF-8"?><!DOCTYPE svg PUBLIC "-//W3C//DTD SVG 1.1//EN" "http://www.w3.org/Graphics/SVG/1.1/DTD/svg11.dtd"><svg xmlns="http://www.w3.org/2000/svg" xmlns:xlink="http://www.w3.org/1999/xlink" version="1.1" id="mdi-keyboard-f5" width="24" height="24" viewBox="0 0 24 24"><path d="M5 7H11V9H7V11H10V13H7V17H5V7M13 7H19V9H15V11H17C18.11 11 19 11.9 19 13V15C19 16.11 18.11 17 17 17H13V15H17V13H13V7Z" /></svg>
